X:11425
T:Munlochy Bridge
M:C
L:1/8
K:EDor
% dorian/minor hexatonic, E-final C-gap hexatonic pitch set
a|e>dB>A B>GG>B|d>ed>B d2d>a|e>dB>A B>GG>B|g>e (3fed e2e :|
g|d>eg>e a>ee>f|d>ed>B d2d>e|d>eg>e a>ee>f|g>e (3fed e2e>f|
  d>eg>e a>ee>f|d>ed>B d2d>a|e>dB>A B>GG>B|g>e (3fed e2e |]
